X:1
T:Mighty to Save
T:Gordon V. Thompson, 1911
T:Mighty to Save
T:Public Domain
T:Public Domain
C:Gordon V. Thompson, 1911
Z:Public Domain
%%score ( 1 2 ) ( 3 4 )
L:1/8
M:3/4
K:Ab
V:1 treble 
V:2 treble 
V:3 bass 
V:4 bass 
V:1
 E2 | [CA]2 [EA]2 [EB]2 | [Ec]2 [Ec]2 [_Gc]2 | [Fd]2 [FA]2 [_FB]2 | [Ec]6 | [Gc]2 [GB]2 [^F=A]2 | %6
w: 1.~I|a Re- deem-|er Who saves|me from sin;|Now|He’s a- bid-|
w: 2.~I|a Re- deem-|er to pi-|lot me o’er|Life’s|ang- ry bil-|
w: 3.~I|a Re- deem-|er, so watch-|ful is He,|Walk-|ing be- side|
w: 4.~I|a Re- deem-|er, I know|He is mine,|Prov-|ing His pre-|
 [GB]2 E2 [DE]2 | [CA]2 [DB]2 [=D=B]2 | [Ec]4 [Ec]2 | [Ee]2 [Ee]2 [Ee]2 | [Ee]2 [Ec]2 [EA]2 | %11
w: ing for- ev-|with- in, His|life for|my ran- som|so free- ly|
w: lows to Heav-|fair shore; I|know He|will keep me,|tho’ wild be|
w: me, my ter-|all flee; He|guards me|in dan- ger,|and bids me|
w: sence by pow-|di- vine; I|sure- ly|can trust Him|to con- quer|
 [DF]2 [Fd]2 [FB]2 | [=Ec]4 [Ec]2 | F2 [EG]2 [FA]2 | E2 [Fd]4 | [Ec]2 [Ec]3 [DB] | [CA]6 || %17
w: He gave— ’Tis|Je- sus|my Sav- ior,|y to|||
w: the wave— ’Tis|Je- sus|my Sav- ior,|y to|||
w: be brave— ’Tis|Je- sus|my Sav- ior,|y to|||
w: the grave— This|Je- sus|my Sav- ior,|y to|||
"^Refrain" [GB]2 [GB]3 [^F=A] | [GB]4 E2 | [Ec]2 [Ac]3 [A=B] | [Ac]4 [Ac]2 | [Ae]2 [Ac]2 [GB]2 | %22
w: |||||
w: |||||
w: |||||
w: |||||
 [EA]2 [EG]2 [EA]2 | [=Dc]2 [DB]2 [DF]2 | (E4 D2) | [CA]2 [EA]2 [EB]2 | [Ec]2 [Ec]2 [_Gc]2 | %27
w: |||||
w: |||||
w: |||||
w: |||||
 [Fd]2 [FA]2 [FB]2 | [=Ec]6 | F2 [EG]2 [FA]2 | E2 [Fd]4 | [Ec]2 [Ec]3 [DB] | [CA]4 |] %33
w: ||||||
w: ||||||
w: ||||||
w: ||||||
V:2
 E2 | x6 | x6 | x6 | x6 | x6 | x2 E2 x2 | x6 | x6 | x6 | x6 | x6 | x6 | F2 x4 | E2 x4 | x6 | x6 || %17
w: have||||||er|||||||might-|save.|||
w: have||||||en’s|||||||might-|save.|||
w: have||||||rors|||||||might-|save.|||
w: have||||||er|||||||might-|save.|||
 x6 | x4 E2 | x6 | x6 | x6 | x6 | x6 | B6 | x6 | x6 | x6 | x6 | F2 x4 | E2 x4 | x6 | x4 |] %33
w: ||||||||||||||||
w: ||||||||||||||||
w: ||||||||||||||||
w: ||||||||||||||||
V:3
 E,2 | [A,,E,]2 [C,A,]2 [E,G,]2 | A,2 A,2 [A,,A,]2 | [D,A,]2 [D,D]2 [D,A,]2 | [A,,A,]6 | %5
w: ~|~ ~ ~|~ ~ ~|~ ~ ~|~|
 [E,D]2 [E,D]2 [E,C]2 | [E,D]2 [E,G,]2 [E,G,]2 | [A,,A,]2 [A,,G,]2 [A,,F,]2 | [A,,E,]4 [A,,A,]2 | %9
w: ~ ~ ~|~ ~ ~|~ ~ ~|~ ~|
 [A,C]2 [G,B,]2 [B,D]2 | [A,C]2 A,2 [C,A,]2 | [D,A,]2 [E,A,]2 (G,F,) | [C,G,]4 [C,B,]2 | %13
w: ~ ~ ~|~ ~ ~|~ ~ ~ *|~ ~|
 [D,A,]2 [D,A,]2 [D,A,]2 | [C,A,]2 [D,A,]4 | [E,A,]2 [E,G,]3 [E,G,] | [A,,A,]6 || %17
w: ~ ~ ~|~ Might-|y to save!|He’s|
 [E,D]2 [E,D]3 [E,C] | [E,D]4 [G,D]2 | [A,C]2 [A,E]3 [A,=D] | [A,E]4 [A,E]2 | %21
w: might- y to|save, Yes!|Je- sus my|Sav- ior|
 [A,C]2 [A,E]2 [E,D]2 | [A,C]2 [B,D]2 [A,C]2 | [F,A,]2 [F,A,]2 [B,,A,]2 | [E,G,]6 | %25
w: is might- y|to save! Sin’s|old al- lure-|ments|
 [A,,A,]2 [C,A,]2 [E,G,]2 | A,2 A,2 [A,,A,]2 | [D,A,]2 [D,A,]2 (G,F,) | (G,4 B,2) | %29
w: no long- er|I crave; Je-|lures me, might- *|to *|
 [D,A,]2 [D,A,]2 [D,A,]2 | [C,A,]2 [D,A,]4 | [E,A,]2 [E,G,]3 [E,G,] | [A,,A,]4 |] %33
w: ||||
V:4
 E,2 | x6 | A,2 A,2 x2 | x6 | x6 | x6 | x6 | x6 | x6 | x6 | x2 A,2 x2 | x4 D,2 | x6 | x6 | x6 | %15
w: ~||~ ~||||||||~|~||||
 x6 | x6 || x6 | x6 | x6 | x6 | x6 | x6 | x6 | x6 | x6 | A,2 A,2 x2 | x4 D,2 | C,6 | x6 | x6 | x6 | %32
w: |||||||||||sus al-|y|save.||||
 x4 |] %33
w: |

